X:28
T:Reel de Peribonka
C:Joseph Allard
M:2/4
L:1/16
Z:abc by Bruce Osborne - bosborne@kos.net
K:G
GABA GEED|FGAG FDD2|GABc dBge|dBAc BGEF|!
GABA GEED|FGAG FDD2|GABc dBge|dcAc BGG2:|!
|:dBBA dBBe|dBBA B2Be|dBBA Bdge|dcAc BGGB|!
dBBA dBBe|dBBA B2GB|dBBA Bdge|dcAc BGG2:|!
